**harm	**harte	**silbe	**silbe	**silbe	**rhyme	**timestamp	**phrase	**leadinstrument	**kern
*M4/4	*M4/4	*	*	*	*	*	*	*	*
*	*	*	*	*	*	*	*	*	*
*	*	*	*	*	*	*	*	*	*
*C:	*C:	*	*	*	*	*	*	*	*C:
*	*	*	*	*	*	*	*	*	*
*	*	*	*	*	*	*	*	*	*
1r;	N	.	.	.	.	0	.	r	1r;
=1	=1	=1	=1	=1	=1	=1	=1	=1	=1
*>Letter>A	*>Letter>A	*>Letter>A	*>Letter>A	*>Letter>A	*>Letter>A	*>Letter>A	*>Letter>A	*>Letter>A	*>Letter>A
*>Label>Intro	*>Label>Intro	*>Label>Intro	*>Label>Intro	*>Label>Intro	*>Label>Intro	*>Label>Intro	*>Label>Intro	*>Label>Intro	*>Label>Intro
1I	C:sus2	.	.	.	.	0.511	newline	guitar	1C 1e 1g
=2	=2	=2	=2	=2	=2	=2	=2	=2	=2
1I	C:sus2	.	.	.	.	1.762	.	guitar	1C 1e 1g
=3	=3	=3	=3	=3	=3	=3	=3	=3	=3
1-VII	B-:maj6(9)	.	.	.	.	3.012	.	guitar	1B- 1dd 1ff
=4	=4	=4	=4	=4	=4	=4	=4	=4	=4
2-VII	B-:maj6(9)	.	.	.	.	4.263	.	guitar	1B- 1dd 1ff
4IVb	F:maj/3	.	.	.	.	4.888	.	guitar	4f 4A 4cc
4IV	F:maj	.	.	.	.	5.201	.	guitar	4F 4a 4cc
=5	=5	=5	=5	=5	=5	=5	=5	=5	=5
*>Letter>B	*>Letter>B	*>Letter>B	*>Letter>B	*>Letter>B	*>Letter>B	*>Letter>B	*>Letter>B	*>Letter>B	*>Letter>B
*>Label>Trans	*>Label>Trans	*>Label>Trans	*>Label>Trans	*>Label>Trans	*>Label>Trans	*>Label>Trans	*>Label>Trans	*>Label>Trans	*>Label>Trans
1I	C:maj	.	.	.	.	5.514	newline	strings	1C 1e 1g
=6	=6	=6	=6	=6	=6	=6	=6	=6	=6
1-VII	B-:maj6(9)	.	.	.	.	6.789	.	strings	1B- 1dd 1ff
=7	=7	=7	=7	=7	=7	=7	=7	=7	=7
1I	C:maj	.	.	.	.	8.065	.	strings	1C 1e 1g
=8	=8	=8	=8	=8	=8	=8	=8	=8	=8
1-VII	B-:maj6(9)	.	.	.	.	9.34	.	strings	1B- 1dd 1ff
=9	=9	=9	=9	=9	=9	=9	=9	=9	=9
*>Letter>C	*>Letter>C	*>Letter>C	*>Letter>C	*>Letter>C	*>Letter>C	*>Letter>C	*>Letter>C	*>Letter>C	*>Letter>C
*>Label>Verse	*>Label>Verse	*>Label>Verse	*>Label>Verse	*>Label>Verse	*>Label>Verse	*>Label>Verse	*>Label>Verse	*>Label>Verse	*>Label>Verse
1I	C:maj	Buy	.	.	.	10.616	newline	voice	1C 1e 1g
.	.	for	.	.	.	.	.	.	.
.	.	me	.	.	.	.	.	.	.
.	.	the	.	.	.	.	.	.	.
.	.	rain,	.	.	.	.	.	.	.
=10	=10	=10	=10	=10	=10	=10	=10	=10	=10
1-VII	B-:maj6(9)	_	.	.	.	11.871	.	voice	1B- 1dd 1ff
.	.	my	.	.	.	.	.	.	.
.	.	dar-	.	.	.	.	.	.	.
.	.	-ling,	.	.	.	.	.	.	.
=11	=11	=11	=11	=11	=11	=11	=11	=11	=11
1I	C:maj	buy	.	.	.	13.126	.	voice	1C 1e 1g
.	.	for	.	.	.	.	.	.	.
.	.	me	.	.	.	.	.	.	.
.	.	the	.	.	.	.	.	.	.
.	.	rain	.	.	A	.	.	.	.
=12	=12	=12	=12	=12	=12	=12	=12	=12	=12
1-VII	B-:maj6(9)	_	.	.	.	14.381	.	voice	1B- 1dd 1ff
.	.	.	.	.	.	.	.	.	.
.	.	.	.	.	.	.	.	.	.
=13	=13	=13	=13	=13	=13	=13	=13	=13	=13
1I	C:maj	Buy	.	.	.	15.636	newline	voice	1C 1e 1g
.	.	for	.	.	.	.	.	.	.
.	.	me	.	.	.	.	.	.	.
.	.	the	.	.	.	.	.	.	.
.	.	cry-	.	.	.	.	.	.	.
=14	=14	=14	=14	=14	=14	=14	=14	=14	=14
1-VII	B-:maj6(9)	_	.	.	.	16.918	.	voice	1B- 1dd 1ff
.	.	-stal	.	.	.	.	.	.	.
.	.	_	.	.	.	.	.	.	.
.	.	pools	.	.	.	.	.	.	.
.	.	_	.	.	.	.	.	.	.
.	.	teat	.	.	.	.	.	.	.
=15	=15	=15	=15	=15	=15	=15	=15	=15	=15
1I	C:maj	fall	.	.	.	18.199	.	voice	1C 1e 1g
.	.	u-	.	.	.	.	.	.	.
.	.	-pon	.	.	.	.	.	.	.
.	.	the	.	.	.	.	.	.	.
.	.	plain.	.	.	A	.	.	.	.
=16	=16	=16	=16	=16	=16	=16	=16	=16	=16
1v7b	G:min11/b3	_	.	.	.	19.48	.	voice	1g 1B- 1dd 1ff
.	.	.	.	.	.	.	.	.	.
.	.	And	.	.	.	.	.	.	.
.	.	I'll	.	.	.	.	.	.	.
.	.	_	.	.	.	.	.	.	.
=17	=17	=17	=17	=17	=17	=17	=17	=17	=17
1IV	F:maj	buy	Buy	.	.	20.761	newline	voice	1F 1a 1cc
.	.	for	for	.	.	.	.	.	.
.	.	you	you	.	.	.	.	.	.
.	.	a	a	.	.	.	.	.	.
.	.	rain	rain	.	A	.	.	.	.
=18	=18	=18	=18	=18	=18	=18	=18	=18	=18
1IV	F:maj	_	_	.	.	22.029	.	voice	1F 1a 1cc
.	.	bow,	bow,	.	B	.	.	.	.
.	.	.	.	.	.	.	.	.	.
.	.	and	and	.	.	.	.	.	.
.	.	a	a	.	.	.	.	.	.
=19	=19	=19	=19	=19	=19	=19	=19	=19	=19
1V7	G:7	mil-	mil-	.	.	23.296	.	voice	1G 1b 1dd 1ff
.	.	-lion	-lion	.	.	.	.	.	.
.	.	_	_	.	.	.	.	.	.
.	.	pots	pots	.	.	.	.	.	.
.	.	of	of	.	.	.	.	.	.
.	.	gold	gold	.	B	.	.	.	.
=20	=20	=20	=20	=20	=20	=20	=20	=20	=20
1V7	G:7	_	_	.	.	24.564	.	voice	1G 1b 1dd 1ff
.	.	.	.	.	.	.	.	.	.
.	.	.	.	.	.	.	.	.	.
=21	=21	=21	=21	=21	=21	=21	=21	=21	=21
1I	C:maj	Buy	Buy	.	.	25.831	newline	voice	1C 1e 1g
.	.	it	it	.	.	.	.	.	.
.	.	_	_	.	.	.	.	.	.
.	.	for	for	.	.	.	.	.	.
.	.	me	me	.	.	.	.	.	.
.	.	now,	now,	.	.	.	.	.	.
=22	=22	=22	=22	=22	=22	=22	=22	=22	=22
1-VII	B-:maj6(9)	_	_	.	.	27.1	.	voice	1B- 1dd 1ff
.	.	babe,	babe,	.	.	.	.	.	.
.	.	_	_	.	.	.	.	.	.
.	.	.	.	.	.	.	.	.	.
.	.	be-	be-	.	.	.	.	.	.
=23	=23	=23	=23	=23	=23	=23	=23	=23	=23
1IV	F:maj	-fore	-fore	.	.	28.369	.	voice	1F 1a 1cc
.	.	I	I	.	.	.	.	.	.
.	.	_	_	.	.	.	.	.	.
.	.	am	am	.	.	.	.	.	.
.	.	too	too	.	.	.	.	.	.
.	.	old	old	.	B	.	.	.	.
=24	=24	=24	=24	=24	=24	=24	=24	=24	=24
1-VII	B-:maj6(9)	_	_	.	.	29.637	.	voice	1B- 1dd 1ff
.	.	.	.	I	.	.	.	.	.
.	.	.	.	am	.	.	.	.	.
.	.	.	.	too	.	.	.	.	.
.	.	.	.	old...	.	.	.	.	.
=25	=25	=25	=25	=25	=25	=25	=25	=25	=25
1-VII	B-:maj6(9)	_	_	_	.	30.906	.	voice	1B- 1dd 1ff
.	.	_	_	_	.	.	.	.	.
=26	=26	=26	=26	=26	=26	=26	=26	=26	=26
*>Letter>B	*>Letter>B	*>Letter>B	*>Letter>B	*>Letter>B	*>Letter>B	*>Letter>B	*>Letter>B	*>Letter>B	*>Letter>B
*>Label>Trans	*>Label>Trans	*>Label>Trans	*>Label>Trans	*>Label>Trans	*>Label>Trans	*>Label>Trans	*>Label>Trans	*>Label>Trans	*>Label>Trans
1I	C:maj	_	_	_	.	32.175	->newline	strings	1C 1e 1g
.	.	.	.	.	.	.	.	.	.
.	.	.	.	.	.	.	.	.	.
=27	=27	=27	=27	=27	=27	=27	=27	=27	=27
1v7	G:min7	.	.	.	.	33.452	.	strings	1G 1b- 1dd 1ff
=28	=28	=28	=28	=28	=28	=28	=28	=28	=28
1I	C:maj	.	.	.	.	34.73	.	strings	1C 1e 1g
=29	=29	=29	=29	=29	=29	=29	=29	=29	=29
1v7	G:min7	.	.	.	.	36.007	.	strings	1G 1b- 1dd 1ff
=30	=30	=30	=30	=30	=30	=30	=30	=30	=30
*>Letter>C	*>Letter>C	*>Letter>C	*>Letter>C	*>Letter>C	*>Letter>C	*>Letter>C	*>Letter>C	*>Letter>C	*>Letter>C
*>Label>Verse	*>Label>Verse	*>Label>Verse	*>Label>Verse	*>Label>Verse	*>Label>Verse	*>Label>Verse	*>Label>Verse	*>Label>Verse	*>Label>Verse
1I	C:maj	Buy	.	.	.	37.285	newline	voice	1C 1e 1g
.	.	for	.	.	.	.	.	.	.
.	.	me	.	.	.	.	.	.	.
.	.	the	.	.	.	.	.	.	.
.	.	sun,	.	.	C	.	.	.	.
=31	=31	=31	=31	=31	=31	=31	=31	=31	=31
1-VII	B-:maj6(9)	_	.	.	.	38.561	.	voice	1B- 1dd 1ff
.	.	my	.	.	.	.	.	.	.
.	.	dar-	.	.	.	.	.	.	.
.	.	-ling,,	.	.	.	.	.	.	.
=32	=32	=32	=32	=32	=32	=32	=32	=32	=32
1I	C:maj	buy	.	.	.	39.837	.	voice	1C 1e 1g
.	.	for	.	.	.	.	.	.	.
.	.	me	.	.	.	.	.	.	.
.	.	the	.	.	.	.	.	.	.
.	.	sun	.	.	C	.	.	.	.
=33	=33	=33	=33	=33	=33	=33	=33	=33	=33
1v7	G:min7	_	.	.	.	41.113	.	voice	1G 1b- 1dd 1ff
.	.	.	.	.	.	.	.	.	.
.	.	.	.	.	.	.	.	.	.
=34	=34	=34	=34	=34	=34	=34	=34	=34	=34
1I	C:maj	Buy	.	.	.	42.39	newline	voice	1C 1e 1g
.	.	for	.	.	.	.	.	.	.
.	.	me	.	.	.	.	.	.	.
.	.	the	.	.	.	.	.	.	.
.	.	light	.	.	.	.	.	.	.
=35	=35	=35	=35	=35	=35	=35	=35	=35	=35
1-VII	B-:maj6(9)	_	.	.	.	43.673	.	voice	1B- 1dd 1ff
.	.	that	.	.	.	.	.	.	.
.	.	_	.	.	.	.	.	.	.
.	.	falls	.	.	.	.	.	.	.
.	.	_	.	.	.	.	.	.	.
.	.	when	.	.	.	.	.	.	.
=36	=36	=36	=36	=36	=36	=36	=36	=36	=36
1I	C:maj	day	.	.	.	44.957	.	voice	1C 1e 1g
.	.	has	.	.	.	.	.	.	.
.	.	just	.	.	.	.	.	.	.
.	.	be-	.	.	.	.	.	.	.
.	.	-gun	.	.	C	.	.	.	.
=37	=37	=37	=37	=37	=37	=37	=37	=37	=37
1-VII	B-:maj6(9)	_	.	.	.	46.241	.	voice	1B- 1dd 1ff
.	.	.	.	.	.	.	.	.	.
.	.	And	.	.	.	.	.	.	.
.	.	I'll	.	.	.	.	.	.	.
.	.	_	.	.	.	.	.	.	.
=38	=38	=38	=38	=38	=38	=38	=38	=38	=38
1IV	F:maj	buy	Buy	.	.	47.525	newline	voice	1F 1a 1cc
.	.	for	for	.	.	.	.	.	.
.	.	you	you	.	.	.	.	.	.
.	.	a	a	.	.	.	.	.	.
.	.	sha-	sha-	.	.	.	.	.	.
=39	=39	=39	=39	=39	=39	=39	=39	=39	=39
1IV	F:maj	-dow,	-dow,	.	.	48.793	.	voice	1F 1a 1cc
.	.	_	_	.	.	.	.	.	.
.	.	_	_	.	.	.	.	.	.
.	.	.	.	.	.	.	.	.	.
.	.	to	to	.	.	.	.	.	.
.	.	pro-	pro-	.	.	.	.	.	.
=40	=40	=40	=40	=40	=40	=40	=40	=40	=40
1V7	G:7	-tect	-tect	.	.	50.061	.	voice	1G 1b 1dd 1ff
.	.	you	you	.	.	.	.	.	.
.	.	_	_	.	.	.	.	.	.
.	.	from	from	.	.	.	.	.	.
.	.	the	the	.	.	.	.	.	.
.	.	day	day	.	A	.	.	.	.
=41	=41	=41	=41	=41	=41	=41	=41	=41	=41
1V7	G:7	_	_	.	.	51.33	.	voice	1G 1b 1dd 1ff
.	.	.	.	.	.	.	.	.	.
.	.	.	.	.	.	.	.	.	.
=42	=42	=42	=42	=42	=42	=42	=42	=42	=42
1I	C:maj	Buy	Buy	.	.	52.598	newline	voice	1C 1e 1g
.	.	it	it	.	.	.	.	.	.
.	.	for	for	.	.	.	.	.	.
.	.	me	me	.	.	.	.	.	.
.	.	now,	now,	.	.	.	.	.	.
=43	=43	=43	=43	=43	=43	=43	=43	=43	=43
1-VII	B-:maj6(9)	_	_	.	.	53.891	.	voice	1B- 1dd 1ff
.	.	babe,	babe,	.	.	.	.	.	.
.	.	_	_	.	.	.	.	.	.
.	.	.	.	.	.	.	.	.	.
.	.	be-	be-	.	.	.	.	.	.
=44	=44	=44	=44	=44	=44	=44	=44	=44	=44
1IV	F:maj	-fore	-fore	.	.	55.184	.	voice	1F 1a 1cc
.	.	I	I	.	.	.	.	.	.
.	.	_	_	.	.	.	.	.	.
.	.	go	go	.	.	.	.	.	.
.	.	a-	a-	.	.	.	.	.	.
.	.	-way	-way	.	A	.	.	.	.
=45	=45	=45	=45	=45	=45	=45	=45	=45	=45
1-VII	B-:maj6(9)	_	_	.	.	56.477	.	voice	1B- 1dd 1ff
.	.	.	.	I'll	.	.	.	.	.
.	.	.	.	go	.	.	.	.	.
.	.	.	.	a-	.	.	.	.	.
=46	=46	=46	=46	=46	=46	=46	=46	=46	=46
1-VII	B-:maj6(9)	_	_	-way...	A	57.77	.	voice	1B- 1dd 1ff
.	.	_	_	_	.	.	.	.	.
=47	=47	=47	=47	=47	=47	=47	=47	=47	=47
*>Letter>B	*>Letter>B	*>Letter>B	*>Letter>B	*>Letter>B	*>Letter>B	*>Letter>B	*>Letter>B	*>Letter>B	*>Letter>B
*>Label>Trans	*>Label>Trans	*>Label>Trans	*>Label>Trans	*>Label>Trans	*>Label>Trans	*>Label>Trans	*>Label>Trans	*>Label>Trans	*>Label>Trans
1I	C:maj	_	_	_	.	59.063	->newline	strings	1C 1e 1g
.	.	.	.	.	.	.	.	.	.
.	.	.	.	.	.	.	.	.	.
=48	=48	=48	=48	=48	=48	=48	=48	=48	=48
1v7	G:min7	.	.	.	.	60.348	.	strings	1G 1b- 1dd 1ff
=49	=49	=49	=49	=49	=49	=49	=49	=49	=49
1I	C:maj	.	.	.	.	61.634	.	strings	1C 1e 1g
=50	=50	=50	=50	=50	=50	=50	=50	=50	=50
1v7	G:min7	.	.	.	.	62.919	.	strings	1G 1b- 1dd 1ff
=51	=51	=51	=51	=51	=51	=51	=51	=51	=51
*>Letter>C	*>Letter>C	*>Letter>C	*>Letter>C	*>Letter>C	*>Letter>C	*>Letter>C	*>Letter>C	*>Letter>C	*>Letter>C
*>Label>Verse	*>Label>Verse	*>Label>Verse	*>Label>Verse	*>Label>Verse	*>Label>Verse	*>Label>Verse	*>Label>Verse	*>Label>Verse	*>Label>Verse
1I	C:maj	Buy	.	.	.	64.204	newline	voice	1C 1e 1g
.	.	for	.	.	.	.	.	.	.
.	.	me	.	.	.	.	.	.	.
.	.	the	.	.	.	.	.	.	.
.	.	ro	.	.	.	.	.	.	.
=52	=52	=52	=52	=52	=52	=52	=52	=52	=52
1-VII	B-:maj6(9)	_	.	.	.	65.488	.	voice	1B- 1dd 1ff
.	.	bin,	.	.	.	.	.	.	.
.	.	_	.	.	.	.	.	.	.
.	.	dar-	.	.	.	.	.	.	.
.	.	_	.	.	.	.	.	.	.
.	.	-ling,	.	.	d	.	.	.	.
.	.	_	.	.	.	.	.	.	.
=53	=53	=53	=53	=53	=53	=53	=53	=53	=53
1I	C:maj	buy	.	.	.	66.772	.	voice	1C 1e 1g
.	.	for	.	.	.	.	.	.	.
.	.	me	.	.	.	.	.	.	.
.	.	the	.	.	.	.	.	.	.
.	.	wing	.	.	D	.	.	.	.
=54	=54	=54	=54	=54	=54	=54	=54	=54	=54
1-VII	B-:maj6(9)	_	.	.	.	68.056	.	voice	1B- 1dd 1ff
.	.	.	.	.	.	.	.	.	.
.	.	.	.	.	.	.	.	.	.
=55	=55	=55	=55	=55	=55	=55	=55	=55	=55
1I	C:maj	Buy	.	.	.	69.34	newline	voice	1C 1e 1g
.	.	for	.	.	.	.	.	.	.
.	.	me	.	.	.	.	.	.	.
.	.	a	.	.	.	.	.	.	.
.	.	spar-	.	.	.	.	.	.	.
=56	=56	=56	=56	=56	=56	=56	=56	=56	=56
1-VII	B-:maj6(9)	_	.	.	.	70.643	.	voice	1B- 1dd 1ff
.	.	-row,	.	.	.	.	.	.	.
.	.	_	.	.	.	.	.	.	.
.	.	or	.	.	.	.	.	.	.
.	.	most	.	.	.	.	.	.	.
.	.	_	.	.	.	.	.	.	.
=57	=57	=57	=57	=57	=57	=57	=57	=57	=57
1I	C:maj	a-	.	.	.	71.945	.	voice	1C 1e 1g
.	.	-ny	.	.	.	.	.	.	.
.	.	_	.	.	.	.	.	.	.
.	.	fly-	.	.	.	.	.	.	.
.	.	-ing	.	.	.	.	.	.	.
.	.	_	.	.	.	.	.	.	.
.	.	thing	.	.	D	.	.	.	.
=58	=58	=58	=58	=58	=58	=58	=58	=58	=58
1-VII	B-:maj6(9)	_	.	.	.	73.247	.	voice	1B- 1dd 1ff
.	.	.	.	.	.	.	.	.	.
.	.	And	.	.	.	.	.	.	.
.	.	I'll	.	.	.	.	.	.	.
.	.	_	.	.	.	.	.	.	.
=59	=59	=59	=59	=59	=59	=59	=59	=59	=59
1IV	F:maj	buy	Buy	.	.	74.549	newline	voice	1F 1a 1cc
.	.	for	for	.	.	.	.	.	.
.	.	you	you	.	.	.	.	.	.
.	.	a	a	.	.	.	.	.	.
.	.	tree,	tree,	.	D	.	.	.	.
=60	=60	=60	=60	=60	=60	=60	=60	=60	=60
1IV	F:maj	_	_	.	.	75.815	.	voice	1F 1a 1cc
.	.	my	my	.	.	.	.	.	.
.	.	_	_	.	.	.	.	.	.
.	.	love,	love,	.	.	.	.	.	.
.	.	_	_	.	.	.	.	.	.
.	.	where	where	.	.	.	.	.	.
.	.	a	a	.	.	.	.	.	.
=61	=61	=61	=61	=61	=61	=61	=61	=61	=61
1V7	G:7	ro-	ro-	.	.	77.08	.	voice	1G 1b 1dd 1ff
.	.	-bin's	-bin's	.	.	.	.	.	.
.	.	_	_	.	.	.	.	.	.
.	.	nest	nest	.	.	.	.	.	.
.	.	may	may	.	.	.	.	.	.
.	.	grow	grow	.	B	.	.	.	.
=62	=62	=62	=62	=62	=62	=62	=62	=62	=62
1V7	G:7	_	_	.	.	78.346	.	voice	1G 1b 1dd 1ff
.	.	.	.	.	.	.	.	.	.
.	.	.	.	.	.	.	.	.	.
=63	=63	=63	=63	=63	=63	=63	=63	=63	=63
1I	C:maj	Buy	Buy	.	.	79.612	newline	voice	1C 1e 1g
.	.	it	it	.	.	.	.	.	.
.	.	for	for	.	.	.	.	.	.
.	.	me	me	.	.	.	.	.	.
.	.	now,	now,	.	.	.	.	.	.
=64	=64	=64	=64	=64	=64	=64	=64	=64	=64
1-VII	B-:maj6(9)	_	_	.	.	80.919	.	voice	1B- 1dd 1ff
.	.	babe,	babe,	.	.	.	.	.	.
.	.	_	_	.	.	.	.	.	.
.	.	.	.	.	.	.	.	.	.
.	.	the	the	.	.	.	.	.	.
=65	=65	=65	=65	=65	=65	=65	=65	=65	=65
1IV	F:maj	years	years	.	.	82.226	.	voice	1F 1a 1cc
.	.	all	all	.	.	.	.	.	.
.	.	hur-	hur-	.	.	.	.	.	.
.	.	-ry	-ry	.	.	.	.	.	.
.	.	_	_	.	.	.	.	.	.
.	.	so	so	.	B	.	.	.	.
=66	=66	=66	=66	=66	=66	=66	=66	=66	=66
1-VII	B-:maj6(9)	_	_	.	.	83.534	.	voice	1B- 1dd 1ff
.	.	.	.	They	.	.	.	.	.
.	.	.	.	hur-	.	.	.	.	.
.	.	.	.	-ry	.	.	.	.	.
.	.	.	.	_	.	.	.	.	.
=67	=67	=67	=67	=67	=67	=67	=67	=67	=67
1-VII	B-:maj6(9)	_	_	so...	.	84.841	.	voice	1B- 1dd 1ff
.	.	_	_	_	.	.	.	.	.
=68	=68	=68	=68	=68	=68	=68	=68	=68	=68
*>Letter>B	*>Letter>B	*>Letter>B	*>Letter>B	*>Letter>B	*>Letter>B	*>Letter>B	*>Letter>B	*>Letter>B	*>Letter>B
*>Label>Trans	*>Label>Trans	*>Label>Trans	*>Label>Trans	*>Label>Trans	*>Label>Trans	*>Label>Trans	*>Label>Trans	*>Label>Trans	*>Label>Trans
1I	C:maj	_	_	_	.	86.149	->newline	strings	1C 1e 1g
.	.	.	.	.	.	.	.	.	.
.	.	.	.	.	.	.	.	.	.
=69	=69	=69	=69	=69	=69	=69	=69	=69	=69
1v7	G:min7	.	.	.	.	87.422	.	strings	1G 1b- 1dd 1ff
=70	=70	=70	=70	=70	=70	=70	=70	=70	=70
1I	C:maj	.	.	.	.	88.696	.	strings	1C 1e 1g
=71	=71	=71	=71	=71	=71	=71	=71	=71	=71
1v7	G:min7	.	.	.	.	89.97	.	strings	1G 1b- 1dd 1ff
.	.	.	.	.	.	.	.	.	.
.	.	I	.	.	.	.	.	.	.
=72	=72	=72	=72	=72	=72	=72	=72	=72	=72
*>Letter>C	*>Letter>C	*>Letter>C	*>Letter>C	*>Letter>C	*>Letter>C	*>Letter>C	*>Letter>C	*>Letter>C	*>Letter>C
*>Label>Verse	*>Label>Verse	*>Label>Verse	*>Label>Verse	*>Label>Verse	*>Label>Verse	*>Label>Verse	*>Label>Verse	*>Label>Verse	*>Label>Verse
1I	C:maj	can-	.	.	.	91.243	newline	voice	1C 1e 1g
.	.	-not	.	.	.	.	.	.	.
.	.	_	.	.	.	.	.	.	.
.	.	buy	.	.	.	.	.	.	.
.	.	_	.	.	.	.	.	.	.
.	.	you	.	.	.	.	.	.	.
.	.	hap-	.	.	.	.	.	.	.
=73	=73	=73	=73	=73	=73	=73	=73	=73	=73
1-VII	B-:maj6(9)	_	.	.	.	92.54	.	voice	1B- 1dd 1ff
.	.	-pi-	.	.	.	.	.	.	.
.	.	_	.	.	.	.	.	.	.
.	.	-ness,	.	.	.	.	.	.	.
.	.	_	.	.	.	.	.	.	.
.	.	I	.	.	.	.	.	.	.
=74	=74	=74	=74	=74	=74	=74	=74	=74	=74
1I	C:maj	can-	.	.	.	93.837	.	voice	1C 1e 1g
.	.	-not	.	.	.	.	.	.	.
.	.	_	.	.	.	.	.	.	.
.	.	buy	.	.	.	.	.	.	.
.	.	_	.	.	.	.	.	.	.
.	.	you	.	.	.	.	.	.	.
.	.	_	.	.	.	.	.	.	.
=75	=75	=75	=75	=75	=75	=75	=75	=75	=75
1-VII	B-:maj6(9)	years.	.	.	E	95.134	.	voice	1B- 1dd 1ff
.	.	.	.	.	.	.	.	.	.
.	.	.	.	.	.	.	.	.	.
.	.	I	.	.	.	.	.	.	.
=76	=76	=76	=76	=76	=76	=76	=76	=76	=76
1I	C:maj	can-	.	.	.	96.431	newline	voice	1C 1e 1g
.	.	-not	.	.	.	.	.	.	.
.	.	_	.	.	.	.	.	.	.
.	.	buy	.	.	.	.	.	.	.
.	.	_	.	.	.	.	.	.	.
.	.	you	.	.	.	.	.	.	.
.	.	hap-	.	.	.	.	.	.	.
=77	=77	=77	=77	=77	=77	=77	=77	=77	=77
1-VII	B-:maj6(9)	_	.	.	.	97.705	.	voice	1B- 1dd 1ff
.	.	-pi-	.	.	.	.	.	.	.
.	.	_	.	.	.	.	.	.	.
.	.	-ness,	.	.	.	.	.	.	.
.	.	_	.	.	.	.	.	.	.
.	.	in	.	.	.	.	.	.	.
=78	=78	=78	=78	=78	=78	=78	=78	=78	=78
1I	C:maj	place	.	.	.	98.978	.	voice	1C 1e 1g
.	.	of	.	.	.	.	.	.	.
.	.	all	.	.	.	.	.	.	.
.	.	_	.	.	.	.	.	.	.
.	.	the	.	.	.	.	.	.	.
.	.	tears	.	.	E	.	.	.	.
=79	=79	=79	=79	=79	=79	=79	=79	=79	=79
1-VII	B-:maj6(9)	_	.	.	.	100.251	.	voice	1B- 1dd 1ff
.	.	.	.	.	.	.	.	.	.
.	.	But	.	.	.	.	.	.	.
.	.	I	.	.	.	.	.	.	.
.	.	can	.	.	.	.	.	.	.
.	.	_	.	.	.	.	.	.	.
=80	=80	=80	=80	=80	=80	=80	=80	=80	=80
1IV	F:maj	buy	Buy	.	.	101.525	newline	voice	1F 1a 1cc
.	.	for	for	.	.	.	.	.	.
.	.	you	you	.	.	.	.	.	.
.	.	a	a	.	.	.	.	.	.
.	.	grave	grave	.	.	.	.	.	.
=81	=81	=81	=81	=81	=81	=81	=81	=81	=81
1IV	F:maj	_	_	.	.	102.821	.	voice	1F 1a 1cc
.	.	stone,	stone,	.	.	.	.	.	.
.	.	.	.	.	.	.	.	.	.
.	.	.	.	.	.	.	.	.	.
.	.	to	to	.	.	.	.	.	.
=82	=82	=82	=82	=82	=82	=82	=82	=82	=82
1V7	G:7	lay	lay	.	.	104.116	.	voice	1G 1b 1dd 1ff
.	.	be	be	.	.	.	.	.	.
.	.	_	_	.	.	.	.	.	.
.	.	hind	hind	.	.	.	.	.	.
.	.	your	your	.	.	.	.	.	.
.	.	head	head	.	F	.	.	.	.
=83	=83	=83	=83	=83	=83	=83	=83	=83	=83
1V7	G:7	_	_	.	.	105.412	.	voice	1G 1b 1dd 1ff
.	.	.	.	.	.	.	.	.	.
.	.	.	.	.	.	.	.	.	.
=84	=84	=84	=84	=84	=84	=84	=84	=84	=84
1I	C:maj	Grave-	Grave-	.	.	106.708	newline	voice	1C 1e 1g
.	.	-stones	-stones	.	.	.	.	.	.
.	.	cheer	cheer	.	.	.	.	.	.
.	.	the	the	.	.	.	.	.	.
=85	=85	=85	=85	=85	=85	=85	=85	=85	=85
1-VII	B-:maj6(9)	li-	li-	.	.	107.981	.	voice	1B- 1dd 1ff
.	.	-ving,	-ving,	.	.	.	.	.	.
.	.	_	_	.	.	.	.	.	.
.	.	dear,	dear,	.	.	.	.	.	.
.	.	_	_	.	.	.	.	.	.
.	.	they're	they're	.	.	.	.	.	.
=86	=86	=86	=86	=86	=86	=86	=86	=86	=86
1IV	F:maj	no	no	.	.	109.254	.	voice	1F 1a 1cc
.	.	use	use	.	.	.	.	.	.
.	.	_	_	.	.	.	.	.	.
.	.	to	to	.	.	.	.	.	.
.	.	the	the	.	.	.	.	.	.
.	.	dead	dead	.	F	.	.	.	.
=87	=87	=87	=87	=87	=87	=87	=87	=87	=87
1-VII	B-:maj6(9)	_	_	No	.	110.528	.	voice	1B- 1dd 1ff
.	.	.	.	use	.	.	.	.	.
.	.	.	.	to	.	.	.	.	.
.	.	.	.	the	.	.	.	.	.
.	.	.	.	dead...	.	.	.	.	.
=88	=88	=88	=88	=88	=88	=88	=88	=88	=88
1-VII	B-:maj6(9)	_	_	_	.	111.801	.	voice	1B- 1dd 1ff
.	.	_	_	_	.	.	.	.	.
=89	=89	=89	=89	=89	=89	=89	=89	=89	=89
*>Letter>B	*>Letter>B	*>Letter>B	*>Letter>B	*>Letter>B	*>Letter>B	*>Letter>B	*>Letter>B	*>Letter>B	*>Letter>B
*>Label>Trans	*>Label>Trans	*>Label>Trans	*>Label>Trans	*>Label>Trans	*>Label>Trans	*>Label>Trans	*>Label>Trans	*>Label>Trans	*>Label>Trans
1I	C:maj	_	_	_	.	113.074	->newline	strings	1C 1e 1g
.	.	.	.	.	.	.	.	.	.
.	.	.	.	.	.	.	.	.	.
=90	=90	=90	=90	=90	=90	=90	=90	=90	=90
1v7	G:min7	.	.	.	.	114.386	.	strings	1G 1b- 1dd 1ff
=91	=91	=91	=91	=91	=91	=91	=91	=91	=91
1I	C:maj	.	.	.	.	115.699	.	strings	1C 1e 1g
=92	=92	=92	=92	=92	=92	=92	=92	=92	=92
1v7	G:min7	.	.	.	.	117.011	.	strings	1G 1b- 1dd 1ff
=93	=93	=93	=93	=93	=93	=93	=93	=93	=93
*>Letter>C	*>Letter>C	*>Letter>C	*>Letter>C	*>Letter>C	*>Letter>C	*>Letter>C	*>Letter>C	*>Letter>C	*>Letter>C
*>Label>Interlude	*>Label>Interlude	*>Label>Interlude	*>Label>Interlude	*>Label>Interlude	*>Label>Interlude	*>Label>Interlude	*>Label>Interlude	*>Label>Interlude	*>Label>Interlude
1I	C:maj	.	.	.	.	118.323	newline	strings	1C 1e 1g
=94	=94	=94	=94	=94	=94	=94	=94	=94	=94
1-VII	B-:maj6(9)	.	.	.	.	119.604	.	strings	1B- 1dd 1ff
=95	=95	=95	=95	=95	=95	=95	=95	=95	=95
1I	C:maj	.	.	.	.	120.886	.	strings	1C 1e 1g
=96	=96	=96	=96	=96	=96	=96	=96	=96	=96
1-VII	B-:maj6(9)	.	.	.	.	122.167	.	strings	1B- 1dd 1ff
=97	=97	=97	=97	=97	=97	=97	=97	=97	=97
1IV	F:maj	.	.	.	.	123.448	newline	strings	1F 1a 1cc
=98	=98	=98	=98	=98	=98	=98	=98	=98	=98
1IV	F:maj	.	.	.	.	124.737	.	strings	1F 1a 1cc
=99	=99	=99	=99	=99	=99	=99	=99	=99	=99
1V7	G:7	.	.	.	.	126.027	.	strings	1G 1b 1dd 1ff
=100	=100	=100	=100	=100	=100	=100	=100	=100	=100
1V7	G:7	.	.	.	.	127.316	.	strings	1G 1b 1dd 1ff
=101	=101	=101	=101	=101	=101	=101	=101	=101	=101
1I	C:maj	.	.	.	.	128.605	newline	strings	1C 1e 1g
=102	=102	=102	=102	=102	=102	=102	=102	=102	=102
1-VII	B-:maj6(9)	.	.	.	.	129.888	.	strings	1B- 1dd 1ff
=103	=103	=103	=103	=103	=103	=103	=103	=103	=103
1IV	F:maj	.	.	.	.	131.171	.	strings	1F 1a 1cc
=104	=104	=104	=104	=104	=104	=104	=104	=104	=104
1v	G:min6	.	.	.	.	132.454	->newline	strings	1G 1b- 1dd
=105	=105	=105	=105	=105	=105	=105	=105	=105	=105
1v	G:min6	.	.	.	.	133.73	.	strings	1G 1b- 1dd
=106	=106	=106	=106	=106	=106	=106	=106	=106	=106
1v7	G:min7	.	.	.	.	135.006	.	strings	1G 1b- 1dd 1ff
=107	=107	=107	=107	=107	=107	=107	=107	=107	=107
1v7	G:min7	.	.	.	.	136.283	.	strings	1G 1b- 1dd 1ff
=108	=108	=108	=108	=108	=108	=108	=108	=108	=108
1I	C:maj	.	.	.	.	137.559	newline	strings	1C 1e 1g
1r;	N	.	.	.	.	141.154	.	r	1r;
1r;	N	.	.	.	.	143.047	.	r	1r;
*-	*-	*-	*-	*-	*-	*-	*-	*-	*-
!!!BillboardChartDate: 1967/04/22
!!!BillboardPeak: 45
!!!BillboardWeeksOnChart: 7
!!!COC: Nitty Gritty Dirt Band
!!!ENC: Nathaniel Condit-Schultz
!!!EST: Awating manual error checking and editing.
!!!OTL: Buy For Me The Rain
!!!RDF**harte: Chris Harte's syntax, used by MIREX
!!!RDF**harmony: **recip + pitch class of root + harmonic quality
!!!RDF**leadinstrument: original McGill primary instrumentation annotation
!!!RDF**phrase: newline = linebreak in original McGill transcription
!!!RDF**timestamp: McGill audio timestamp in seconds
!!!RDT: 2017/01/12/
!!!SampleActualRank: 57
!!!SampleID#: 0088
!!!SampleTargetRank: 57
!!!MBID: 7772a95a-b5f5-4751-baf4-24df6467b494
